X:1
T:Title
%%score 1 { ( 2 4 7 ) | ( 3 5 6 ) }
L:1/8
Q:1/4=94
M:4/4
K:G
V:1 treble nm="Akkordion"
V:2 treble nm="Grand Piano"
V:4 treble 
V:7 treble 
V:3 bass 
V:5 bass 
V:6 bass 
V:1
 B>D ^CD A2 G2 | G2 F4 z2 | c>B ^GA B2 A2 | D6 z2 | B>D ^CD A2 G2 | F2 A6 | BFAG F2 E2 | A6 z2 | %8
w: P.~A.~Schnecker * * * * *||||||||
 d3 d e3 B | d2 c2 B2 A2 | G2 G2 A2 A2 | B2 d2 A4 | z8 | z8 | z8[Q:1/4=93][Q:1/4=91][Q:1/4=90] | %15
w: |||||||
 z8[Q:1/4=88][Q:1/4=87][Q:1/4=86][Q:1/4=84][Q:1/4=83][Q:1/4=82][Q:1/4=80][Q:1/4=79][Q:1/4=77][Q:1/4=76][Q:1/4=75][Q:1/4=73][Q:1/4=72] |] %16
w: |
V:2
 [DGB]>D ^CD [B,DA]2 [G,B,G]2 | [CDG]2 [CDF]6 | c2 z2 z4 | [B,D-]4 D4 | [DGB]>D ^CD A2 [G,G]2 | %5
 [DF]2 A2- [DFA-]2 [A,DA]2 | [FB]FAG [A,^CF]2 [CE]2 | [CA]8 | [DGBd]4 [EBe]4 | %9
 [EAd]2 c2 B2 [A,CA]2 | [G,B,G]2 G2 [DGA]2 [DFA]2 | [DGB]2 [DGd]2 [DFA]3 B/c/ | %12
 [DGBd]3 d [^GBe]2 [EB]2 | [EAd]2 [Ac]2 [DEB]2 [CEA]2 | [B,DG]2 [_B,^CG]2 [DGd]3 [DGB] | %15
 [DGB]2 [CFA]2 [B,DG]4 |] %16
V:3
 G,,2 [D,G,B,]2 D,,2 D,2 | A,,2 D,>^G, B,2 A,2 | D,,2 [D,F,C]4 [D,F,C]2 | G,,2 ^G,,2 A,,2 D,,2 | %4
 G,,2 [D,G,B,]2 E,,2 E,2 | A,,2 F,2 A,2 F,2 | A,,2 [A,B,E]2 z2 G,2 | z4[K:treble] D4[K:bass] | %8
 [G,,G,]2 z D ^G,,2 z[K:treble] B | A,,2 [E,A,C]2 C,2 E,2 | z2 D2 D,,2 D,2 | %11
 G,,2 B,,2 z2 z[K:treble] G/A/ | [G,,G,]2 z[K:treble] [AB][K:bass] [E,,E,]2 [^G,,^G,]2 | %13
 z2 E2 B,,2 C,2 | D,2 ^D,2 [=D,B,]4 | [D,,D,]4 [G,,D,]4 |] %16
V:4
 x8 | x8 | [CDF]->[CDFB] ^GA B2 A2 | G,2 =F,2 [^F,C]4 | z4 B,4 | z2 [A,D]2 z4 | ^D2 z2 z4 | %7
 E2 z2 z4 | z2 z d z2 [^G,D]2 | x8 | x8 | x8 | x8 | x8 | x8 | x8 |] %16
V:5
 x8 | x8 | x8 | x8 | x8 | x8 | z4 A,,4 | z z/[K:treble] D/ FE z2[K:bass] D,,2 | %8
 z2 [D,G,]2 z2 E,2[K:treble] | x8 | D,4 z4 | z4 D,4[K:treble] | %12
 z2 [=F,,=F,]2[K:treble][K:bass] z4 | [A,,A,]4 z4 | x8 | x8 |] %16
V:6
 x8 | x8 | x8 | x8 | x8 | x8 | x8 | [D,F,]6[K:treble][K:bass] z2 | x7[K:treble] x | x8 | x8 | %11
 x7[K:treble] x | x3[K:treble] x[K:bass] x4 | x8 | x8 | x8 |] %16
V:7
 x8 | x8 | x8 | x8 | x8 | x8 | x8 | x8 | z2 B,2 z4 | x8 | x8 | x8 | x8 | x8 | x8 | x8 |] %16

